images/bathroomIcon.svg

<svg id="Layer_5" enable-background="new 0 0 64 64" height="100" viewBox="0 0 64 64" width="100" xmlns="http://www.w3.org/2000/svg"><g><path d="m55.758 61-1.569-5.57c4.053-2.204 6.811-6.501 6.811-11.43v-1c1.103 0 2-.897 2-2v-2c0-1.103-.897-2-2-2v-10c1.103 0 2-.897 2-2v-2c0-1.103-.897-2-2-2h-26c-1.103 0-2 .897-2 2v2c0 1.103.897 2 2 2v10c-1.103 0-2 .897-2 2v2c0 1.103.897 2 2 2v1c0 4.929 2.758 9.226 6.811 11.43l-1.569 5.57h-13.343c-.465-2.279-2.484-4-4.899-4h-1v-9.003c4.693-1.963 8-6.6 8-11.997v-7h-18v-4h4v2h2v-2c0-1.103-.897-2-2-2h-6-1-1c-1.103 0-2 .897-2 2v4h-2v7c0 5.397 3.307 10.034 8 11.997v9.003h-1c-2.414 0-4.434 1.721-4.899 4h-5.101v2h64v-2zm-20.759-38h26.001v2h-26zm2.001 8h4v-2h-4v-2h22v10h-22zm-2.001 8h26.001v2h-26zm2.001 5v-1h22v1c0 6.065-4.935 11-11 11s-11-4.935-11-11zm6.661 12.24c1.36.483 2.816.76 4.339.76s2.979-.277 4.339-.76l1.34 4.76h-11.358zm-36.661-31.24h1 1v4h-2zm20 6v2h-22v-2zm-22 5v-1h22v1c0 6.065-4.935 11-11 11s-11-4.935-11-11zm8 12.637c.965.229 1.966.363 3 .363s2.035-.134 3-.363v8.363h-6zm-3 10.363h12c1.302 0 2.402.839 2.816 2h-17.632c.414-1.161 1.514-2 2.816-2z"/><path d="m4 21h24c1.654 0 3-1.346 3-3v-14c0-1.654-1.346-3-3-3h-24c-1.654 0-3 1.346-3 3v14c0 1.654 1.346 3 3 3zm-1-17c0-.551.448-1 1-1h24c.552 0 1 .449 1 1v14c0 .551-.448 1-1 1h-24c-.552 0-1-.449-1-1z"/><path d="m10 2.515h2v16.971h-2z" transform="matrix(.707 -.707 .707 .707 -4.556 11)"/><path d="m20 2.515h2v16.971h-2z" transform="matrix(.707 -.707 .707 .707 -1.627 18.071)"/><path d="m35 9h2v2h-2z"/><path d="m35 13h2v2h-2z"/><path d="m37 11h2v2h-2z"/><path d="m33 11h2v2h-2z"/><path d="m45 3h2v2h-2z"/><path d="m45 7h2v2h-2z"/><path d="m47 5h2v2h-2z"/><path d="m43 5h2v2h-2z"/><path d="m55 13h2v2h-2z"/><path d="m55 17h2v2h-2z"/><path d="m57 15h2v2h-2z"/><path d="m53 15h2v2h-2z"/></g></svg>

<?xml version="1.0" encoding="UTF-8" standalone="no"?>
<svg
   xmlns:dc="http://purl.org/dc/elements/1.1/"
   xmlns:cc="http://creativecommons.org/ns#"
   xmlns:rdf="http://www.w3.org/1999/02/22-rdf-syntax-ns#"
   xmlns:svg="http://www.w3.org/2000/svg"
   xmlns="http://www.w3.org/2000/svg"
   xmlns:sodipodi="http://sodipodi.sourceforge.net/DTD/sodipodi-0.dtd"
   xmlns:inkscape="http://www.inkscape.org/namespaces/inkscape"
   id="Layer_5"
   enable-background="new 0 0 64 64"
   height="100"
   viewBox="0 0 64 64"
   width="100"
   version="1.1"
   sodipodi:docname="bathroomIcon.svg"
   inkscape:version="1.0 (4035a4f, 2020-05-01)">
  <metadata
     id="metadata872">
    <rdf:RDF>
      <cc:Work
         rdf:about="">
        <dc:format>image/svg+xml</dc:format>
        <dc:type
           rdf:resource="http://purl.org/dc/dcmitype/StillImage" />
        <dc:title></dc:title>
      </cc:Work>
    </rdf:RDF>
  </metadata>
  <defs
     id="defs870" />
  <sodipodi:namedview
     inkscape:document-rotation="0"
     pagecolor="#ffffff"
     bordercolor="#666666"
     borderopacity="1"
     objecttolerance="10"
     gridtolerance="10"
     guidetolerance="10"
     inkscape:pageopacity="0"
     inkscape:pageshadow="2"
     inkscape:window-width="1280"
     inkscape:window-height="755"
     id="namedview868"
     showgrid="false"
     showborder="true"
     inkscape:zoom="4.0234376"
     inkscape:cx="49.276974"
     inkscape:cy="56.48275"
     inkscape:window-x="0"
     inkscape:window-y="23"
     inkscape:window-maximized="0"
     inkscape:current-layer="Layer_5" />
  <g
     id="g894"
     transform="matrix(0.6,0,0,0.6,2.8473153,1.9110461)">
    <circle
       r="48"
       cy="50.647415"
       cx="48.55674"
       id="path874"
       style="fill:#f3f7fa;fill-opacity:1;stroke-width:3.17516" />
    <g
       transform="translate(16.55674,18.647415)"
       style="fill:#1a9094;fill-opacity:1"
       id="g865">
      <path
         style="fill:#1a9094;fill-opacity:1"
         id="path833"
         d="M 55.758,61 54.189,55.43 C 58.242,53.226 61,48.929 61,44 v -1 c 1.103,0 2,-0.897 2,-2 v -2 c 0,-1.103 -0.897,-2 -2,-2 V 27 c 1.103,0 2,-0.897 2,-2 v -2 c 0,-1.103 -0.897,-2 -2,-2 H 35 c -1.103,0 -2,0.897 -2,2 v 2 c 0,1.103 0.897,2 2,2 v 10 c -1.103,0 -2,0.897 -2,2 v 2 c 0,1.103 0.897,2 2,2 v 1 c 0,4.929 2.758,9.226 6.811,11.43 L 40.242,61 H 26.899 C 26.434,58.721 24.415,57 22,57 H 21 V 47.997 C 25.693,46.034 29,41.397 29,36 V 29 H 11 v -4 h 4 v 2 h 2 v -2 c 0,-1.103 -0.897,-2 -2,-2 H 9 8 7 c -1.103,0 -2,0.897 -2,2 v 4 H 3 v 7 c 0,5.397 3.307,10.034 8,11.997 V 57 H 10 C 7.586,57 5.566,58.721 5.101,61 H 0 v 2 H 64 V 61 Z M 34.999,23 H 61 v 2 H 35 Z M 37,31 h 4 V 29 H 37 V 27 H 59 V 37 H 37 Z m -2.001,8 H 61 v 2 H 35 Z M 37,44 v -1 h 22 v 1 C 59,50.065 54.065,55 48,55 41.935,55 37,50.065 37,44 Z m 6.661,12.24 C 45.021,56.723 46.477,57 48,57 c 1.523,0 2.979,-0.277 4.339,-0.76 L 53.679,61 H 42.321 Z M 7,25 h 1 1 v 4 H 7 Z m 20,6 v 2 H 5 V 31 Z M 5,36 v -1 h 22 v 1 C 27,42.065 22.065,47 16,47 9.935,47 5,42.065 5,36 Z m 8,12.637 c 0.965,0.229 1.966,0.363 3,0.363 1.034,0 2.035,-0.134 3,-0.363 V 57 H 13 Z M 10,59 h 12 c 1.302,0 2.402,0.839 2.816,2 H 7.184 C 7.598,59.839 8.698,59 10,59 Z" />
      <path
         style="fill:#1a9094;fill-opacity:1"
         id="path835"
         d="m 4,21 h 24 c 1.654,0 3,-1.346 3,-3 V 4 C 31,2.346 29.654,1 28,1 H 4 C 2.346,1 1,2.346 1,4 v 14 c 0,1.654 1.346,3 3,3 z M 3,4 C 3,3.449 3.448,3 4,3 h 24 c 0.552,0 1,0.449 1,1 v 14 c 0,0.551 -0.448,1 -1,1 H 4 C 3.448,19 3,18.551 3,18 Z" />
      <path
         style="fill:#1a9094;fill-opacity:1"
         id="path837"
         transform="matrix(0.707,-0.707,0.707,0.707,-4.556,11)"
         d="m 10,2.515 h 2 v 16.971 h -2 z" />
      <path
         style="fill:#1a9094;fill-opacity:1"
         id="path839"
         transform="matrix(0.707,-0.707,0.707,0.707,-1.627,18.071)"
         d="m 20,2.515 h 2 v 16.971 h -2 z" />
      <path
         style="fill:#1a9094;fill-opacity:1"
         id="path841"
         d="m 35,9 h 2 v 2 h -2 z" />
      <path
         style="fill:#1a9094;fill-opacity:1"
         id="path843"
         d="m 35,13 h 2 v 2 h -2 z" />
      <path
         style="fill:#1a9094;fill-opacity:1"
         id="path845"
         d="m 37,11 h 2 v 2 h -2 z" />
      <path
         style="fill:#1a9094;fill-opacity:1"
         id="path847"
         d="m 33,11 h 2 v 2 h -2 z" />
      <path
         style="fill:#1a9094;fill-opacity:1"
         id="path849"
         d="m 45,3 h 2 v 2 h -2 z" />
      <path
         style="fill:#1a9094;fill-opacity:1"
         id="path851"
         d="m 45,7 h 2 v 2 h -2 z" />
      <path
         style="fill:#1a9094;fill-opacity:1"
         id="path853"
         d="m 47,5 h 2 v 2 h -2 z" />
      <path
         style="fill:#1a9094;fill-opacity:1"
         id="path855"
         d="m 43,5 h 2 v 2 h -2 z" />
      <path
         style="fill:#1a9094;fill-opacity:1"
         id="path857"
         d="m 55,13 h 2 v 2 h -2 z" />
      <path
         style="fill:#1a9094;fill-opacity:1"
         id="path859"
         d="m 55,17 h 2 v 2 h -2 z" />
      <path
         style="fill:#1a9094;fill-opacity:1"
         id="path861"
         d="m 57,15 h 2 v 2 h -2 z" />
      <path
         style="fill:#1a9094;fill-opacity:1"
         id="path863"
         d="m 53,15 h 2 v 2 h -2 z" />
    </g>
  </g>
</svg>
